src/global/asset/icon/navigation/favorite.svg

<svg width="24" height="24" viewBox="0 0 24 24" fill="none" xmlns="http://www.w3.org/2000/svg">
<g id="Type=default">
<path id="icon" fill-rule="evenodd" clip-rule="evenodd" d="M7.69731 4C9.55723 4 10.8621 4.65404 11.6572 5.76968C11.7899 5.95584 11.9047 6.15113 12.0024 6.34896C12.6529 5.09362 14.0118 4 15.9296 4C18.7417 4 19.9147 5.36508 20.4253 7.65945C20.7565 9.14767 19.9728 11.6387 18.3353 13.7709C17.8764 14.3685 17.2297 15.084 16.4284 15.8951C16.1836 16.1429 15.9261 16.3979 15.6573 16.659C14.9179 17.377 14.1266 18.1095 13.3354 18.8178C13.0586 19.0657 12.8014 19.2929 12.5706 19.4946C12.4318 19.6159 12.3324 19.7019 12.2789 19.7477L11.9847 20L11.7042 19.7319C11.6605 19.6901 11.5791 19.6121 11.465 19.5024C11.2749 19.3199 11.0632 19.1158 10.8352 18.8953C10.1837 18.2651 9.53219 17.629 8.92384 17.0268L8.77071 16.8751C7.56229 15.6758 6.70491 14.7879 6.32099 14.3206C6.22292 14.2012 5.82362 13.7269 5.84067 13.7473C5.62791 13.493 5.46152 13.2878 5.29869 13.0756C4.12885 11.5517 3.5 10.0721 3.5 8.23804C3.5 5.83079 4.84051 4 7.69731 4ZM9.52682 16.3955C10.1325 16.995 10.7818 17.6288 11.431 18.2568C11.6409 18.4598 11.8369 18.6488 12.0148 18.8198C12.2411 18.622 12.4931 18.3993 12.7642 18.1566C13.5473 17.4555 14.3302 16.7307 15.0602 16.0218C15.3249 15.7647 15.5781 15.514 15.8185 15.2707C16.5965 14.4831 17.221 13.7922 17.6539 13.2285C19.1447 11.2872 19.8482 9.0514 19.5817 7.85405C19.1504 5.9161 18.2607 4.88063 15.9296 4.88063C14.6614 4.88063 13.7473 5.39739 13.122 6.28096C12.693 6.88712 12.4328 7.672 12.4328 8.01647H11.5678C11.5678 7.57752 11.3719 6.86896 10.9571 6.28685C10.3274 5.40335 9.28454 4.88063 7.69731 4.88063C5.38258 4.88063 4.36499 6.27039 4.36499 8.23804C4.36499 9.84742 4.919 11.1509 5.98025 12.5334C6.1344 12.7342 6.29361 12.9306 6.49915 13.1763C6.47887 13.152 6.88248 13.6314 6.98449 13.7556C7.34214 14.1909 8.18938 15.0684 9.37449 16.2445L9.52682 16.3955Z" fill="black"/>
</g>
</svg>

<svg xmlns="http://www.w3.org/2000/svg" viewBox="0 0 17 16"><path d="M7.7,4a4.55,4.55,0,0,1,4,1.77,4.88,4.88,0,0,1,.34.58A4.34,4.34,0,0,1,15.93,4c2.81,0,4,1.37,4.5,3.66.33,1.49-.46,4-2.09,6.11a25.43,25.43,0,0,1-1.91,2.13l-.77.76c-.74.72-1.53,1.45-2.32,2.16l-.77.67-.29.26L12,20l-.28-.27-.23-.23q-.3-.27-.63-.6c-.66-.63-1.31-1.27-1.92-1.87l-.15-.15c-1.21-1.2-2.07-2.09-2.45-2.56l-.48-.57c-.21-.26-.38-.46-.54-.67A7.62,7.62,0,0,1,3.5,8.24,3.88,3.88,0,0,1,7.7,4ZM9.53,16.4c.6.6,1.25,1.23,1.9,1.86l.58.56.75-.66c.79-.7,1.57-1.43,2.3-2.14l.76-.75a23.14,23.14,0,0,0,1.83-2c1.49-1.94,2.2-4.18,1.93-5.38-.43-1.93-1.32-3-3.65-3a3.26,3.26,0,0,0-2.81,1.4A3.8,3.8,0,0,0,12.43,8h-.86A3.32,3.32,0,0,0,11,6.29,3.71,3.71,0,0,0,7.7,4.88,3,3,0,0,0,4.36,8.24,6.73,6.73,0,0,0,6,12.53c.15.2.31.4.52.65l.48.58c.36.43,1.21,1.31,2.39,2.48Z" transform="translate(-3.5 -4)" fill-rule="evenodd"/></svg>
